dist/svg/icons/repo-clone.svg

<svg height="16" width="16" xmlns="http://www.w3.org/2000/svg" viewBox="0 0 16 16">
  <path d="M15 0H9v7c0 0.55 0.45 1 1 1h1v1h1v-1h3c0.55 0 1-0.45 1-1V1c0-0.55-0.45-1-1-1zM11 7h-1v-1h1v1z m4 0H12v-1h3v1z m0-2H11V1h4v4z m-11 0h-1v-1h1v1z m0-2h-1v-1h1v1zM2 1h6V0H1C0.45 0 0 0.45 0 1v12c0 0.55 0.45 1 1 1h2v2l1.5-1.5 1.5 1.5V14h5c0.55 0 1-0.45 1-1V10H2V1z m9 10v2H6v-1H3v1H1V11h10zM3 8h1v1h-1v-1z m1-1h-1v-1h1v1z" />
</svg>

<svg xmlns="http://www.w3.org/2000/svg" width="16" height="16" viewBox="0 0 16 16"><path d="M15 0H9v7c0 .55.45 1 1 1h1v1h1V8h3c.55 0 1-.45 1-1V1c0-.55-.45-1-1-1zm-4 7h-1V6h1v1zm4 0h-3V6h3v1zm0-2h-4V1h4v4zM4 5H3V4h1v1zm0-2H3V2h1v1zM2 1h6V0H1C.45 0 0 .45 0 1v12c0 .55.45 1 1 1h2v2l1.5-1.5L6 16v-2h5c.55 0 1-.45 1-1v-3H2V1zm9 10v2H6v-1H3v1H1v-2h10zM3 8h1v1H3V8zm1-1H3V6h1v1z"/></svg>
